X: 1
T: Mademoiselle McCloud
O: Qu\'ebec
R: reel
Z: 2013 John Chambers <jc:trillian.mit.edu>
S: Roaring Jelly collection
M: C|
L: 1/8
K: G
%%staffsep 35
cBA |\
"G"G2Bd edBg- | gBBA BcBA |\
"G"G2Bd "E/g#"edBg- | "Am"gAAG "D"AcBA |
"G"G2Bd edBg- | gBBA Bdef |\
"C"gage "D"d2fa | "Em"gedB "D7"A :|
|: def |\
"G".g2.f2 "D"edBg- | "Em"gBBA "D"Bdef |\
"G"gage "D"d2fa | "Em"gedB "D"Adef |
"G".g2.f2 "D"edBg- | "Em"gBBA "D"Bdef |\
"C"gage "D"d2fa | "Em"gedB "D7"A :|["end" cBA | "G"HG4 |]

%%sep 1 1 500
